theme/essential/pix_core/e/italic.svg

<!DOCTYPE svg PUBLIC "-//W3C//DTD SVG 1.1//EN" "http://www.w3.org/Graphics/SVG/1.1/DTD/svg11.dtd" [
	<!ENTITY ns_flows "http://ns.adobe.com/Flows/1.0/">
]><svg xmlns="http://www.w3.org/2000/svg" width="16" height="16" viewBox="-4 -1 16 16" preserveAspectRatio="xMinYMid meet" overflow="visible" enable-background="new -4 -1 16 16"><path d="M0 14.6c.5 0 .9-.1 1.1-.3.3-.2.6-.7.8-1.4l2.8-10.1c.1-.4.2-.7.2-.9.1-.2.1-.3.1-.5 0-.4-.1-.6-.4-.8-.2-.1-.6-.2-1.3-.2v-.4h5.7v.4c-.6.1-1 .2-1.2.4-.2.1-.4.6-.6 1.3l-2.9 10.1c-.1.4-.2.7-.2.9s-.1.4-.1.5c0 .4.1.6.4.8s.7.2 1.2.2v.4h-5.6v-.4z" fill="#999"/></svg>

<?xml version="1.0" encoding="utf-8"?>
<!-- Generator: Adobe Illustrator 15.1.0, SVG Export Plug-In  -->
<!DOCTYPE svg PUBLIC "-//W3C//DTD SVG 1.1//EN" "http://www.w3.org/Graphics/SVG/1.1/DTD/svg11.dtd" [
	<!ENTITY ns_flows "http://ns.adobe.com/Flows/1.0/">
]>
<svg version="1.1"
	 xmlns="http://www.w3.org/2000/svg" xmlns:xlink="http://www.w3.org/1999/xlink" xmlns:a="http://ns.adobe.com/AdobeSVGViewerExtensions/3.0/"
	 x="0px" y="0px" width="16px" height="16px" viewBox="-4 -1 16 16" style="overflow:visible;enable-background:new -4 -1 16 16;"
	 xml:space="preserve" preserveAspectRatio="xMinYMid meet">
<defs>
</defs>
<path style="fill:#29a1c4;" d="M0,14.6c0.5,0,0.9-0.1,1.1-0.3c0.3-0.2,0.6-0.7,0.8-1.4L4.7,2.8c0.1-0.4,0.2-0.7,0.2-0.9
	C5,1.7,5,1.6,5,1.4C5,1,4.9,0.8,4.6,0.6C4.4,0.5,4,0.4,3.3,0.4V0H9v0.4C8.4,0.5,8,0.6,7.8,0.8C7.6,0.9,7.4,1.4,7.2,2.1L4.3,12.2
	c-0.1,0.4-0.2,0.7-0.2,0.9s-0.1,0.4-0.1,0.5c0,0.4,0.1,0.6,0.4,0.8s0.7,0.2,1.2,0.2V15H0V14.6z"/>
</svg>
